src/images/Ishan/Soundscape.svg

<svg fill="none" height="100" viewBox="0 0 100 100" width="100" xmlns="http://www.w3.org/2000/svg"><path d="m81.3559 46.0407v-.5145c0-.1716 0-.3431 0-.5146-3.8983-14.2354-16.7796-24.0116-31.3559-24.0116s-27.4576 9.9477-31.3559 24.0116v.5146.5145c-4.7458.1715-8.6441 4.1163-8.6441 9.0901 0 4.9739 4.0678 9.0901 8.9831 9.0901h1.3559c1.0169 0 1.6949-.686 1.6949-1.7151v-16.8081c3.5593-12.5204 15.0847-21.2675 27.9661-21.2675s24.4068 8.7471 27.9661 21.2675v16.8081c0 1.0291.678 1.7151 1.6949 1.7151h1.356c4.9152 0 8.983-4.1162 8.983-9.0901 0-4.9738-3.8983-8.9186-8.6441-9.0901zm-62.8813 14.75c-2.8814-.1715-5.2543-2.5727-5.2543-5.6599s2.3729-5.4884 5.2543-5.6599zm62.8813 0v-11.3198c2.8814.1715 5.2543 2.5727 5.2543 5.6599s-2.3729 5.4884-5.2543 5.6599zm-31.5254-32.5872c-14.0678 0-25.5932 11.6628-25.5932 25.8982 0 14.2355 11.5254 25.8983 25.5932 25.8983 14.0678-.1715 25.5932-11.8343 25.5932-26.0698 0-14.2354-11.5254-25.7267-25.5932-25.7267zm18.4746 13.5494h-5.2542c-1.017-3.0872-2.3729-5.8314-4.0678-8.061 3.8983 1.7151 7.1186 4.4593 9.322 8.061zm-6.7797 12.1773c0 3.0872-.339 6.1745-1.0169 8.9186h-21.356c-.6779-2.7441-1.0169-5.6598-1.0169-8.9186 0-3.2587.339-6.1744 1.0169-8.9186h21.356c.6779 2.9157 1.0169 5.8314 1.0169 8.9186zm-11.6949 22.2965c-3.8983 0-7.6271-3.9447-9.661-9.9476h19.322c-2.0339 6.0029-5.5932 9.9476-9.661 9.9476zm-9.661-34.4738c2.2034-6.0029 5.7627-9.9477 9.661-9.9477s7.6271 3.9448 9.661 9.9477zm.339-8.061c-1.6949 2.2296-3.0509 4.8023-4.0678 8.061h-5.0848c2.3729-3.6017 5.4238-6.3459 9.1526-8.061zm-11.017 11.4912h6.1017c-.5085 2.7442-.8474 5.6599-.8474 8.9186 0 3.2588.3389 6.1745.8474 8.9186h-6.1017c-1.1864-2.7441-1.8644-5.6598-1.8644-8.9186.1695-3.2587.8475-6.3459 1.8644-8.9186zm1.8644 21.096h5.2543c1.0169 3.0872 2.3729 5.8314 4.0678 8.061-3.8983-1.8866-6.9492-4.6308-9.3221-8.061zm27.7966 8.061c1.695-2.2296 3.0509-4.8023 4.0678-8.061h5.2543c-2.3729 3.4302-5.5932 6.1744-9.3221 8.061zm11.017-11.4913h-6.1017c.5085-2.7441.8475-5.6598.8475-8.9186 0-3.2587-.339-6.1744-.8475-8.9186h6.1017c1.1864 2.7442 1.8644 5.6599 1.8644 8.9186 0 3.2588-.678 6.1745-1.8644 8.9186z" fill="#eb0029"/></svg>

<svg width="100" height="100" viewBox="0 0 100 100" fill="none" xmlns="http://www.w3.org/2000/svg">
<path d="M81.3559 46.0407V45.5262C81.3559 45.3546 81.3559 45.1831 81.3559 45.0116C77.4576 30.7762 64.5763 21 50 21C35.4237 21 22.5424 30.9477 18.6441 45.0116C18.6441 45.1831 18.6441 45.3546 18.6441 45.5262V46.0407C13.8983 46.2122 10 50.157 10 55.1308C10 60.1047 14.0678 64.2209 18.9831 64.2209H20.339C21.3559 64.2209 22.0339 63.5349 22.0339 62.5058V45.6977C25.5932 33.1773 37.1186 24.4302 50 24.4302C62.8814 24.4302 74.4068 33.1773 77.9661 45.6977V62.5058C77.9661 63.5349 78.6441 64.2209 79.661 64.2209H81.017C85.9322 64.2209 90 60.1047 90 55.1308C90 50.157 86.1017 46.2122 81.3559 46.0407ZM18.4746 60.7907C15.5932 60.6192 13.2203 58.218 13.2203 55.1308C13.2203 52.0436 15.5932 49.6424 18.4746 49.4709V60.7907ZM81.3559 60.7907V49.4709C84.2373 49.6424 86.6102 52.0436 86.6102 55.1308C86.6102 58.218 84.2373 60.6192 81.3559 60.7907ZM49.8305 28.2035C35.7627 28.2035 24.2373 39.8663 24.2373 54.1017C24.2373 68.3372 35.7627 80 49.8305 80C63.8983 79.8285 75.4237 68.1657 75.4237 53.9302C75.4237 39.6948 63.8983 28.2035 49.8305 28.2035ZM68.3051 41.7529H63.0509C62.0339 38.6657 60.678 35.9215 58.9831 33.6919C62.8814 35.407 66.1017 38.1512 68.3051 41.7529ZM61.5254 53.9302C61.5254 57.0174 61.1864 60.1047 60.5085 62.8488H39.1525C38.4746 60.1047 38.1356 57.189 38.1356 53.9302C38.1356 50.6715 38.4746 47.7558 39.1525 45.0116H60.5085C61.1864 47.9273 61.5254 50.843 61.5254 53.9302ZM49.8305 76.2267C45.9322 76.2267 42.2034 72.282 40.1695 66.2791H59.4915C57.4576 72.282 53.8983 76.2267 49.8305 76.2267ZM40.1695 41.7529C42.3729 35.75 45.9322 31.8052 49.8305 31.8052C53.7288 31.8052 57.4576 35.75 59.4915 41.7529H40.1695ZM40.5085 33.6919C38.8136 35.9215 37.4576 38.4942 36.4407 41.7529H31.3559C33.7288 38.1512 36.7797 35.407 40.5085 33.6919ZM29.4915 45.1831H35.5932C35.0847 47.9273 34.7458 50.843 34.7458 54.1017C34.7458 57.3605 35.0847 60.2762 35.5932 63.0203H29.4915C28.3051 60.2762 27.6271 57.3605 27.6271 54.1017C27.7966 50.843 28.4746 47.7558 29.4915 45.1831ZM31.3559 66.2791H36.6102C37.6271 69.3663 38.9831 72.1105 40.678 74.3401C36.7797 72.4535 33.7288 69.7093 31.3559 66.2791ZM59.1525 74.3401C60.8475 72.1105 62.2034 69.5378 63.2203 66.2791H68.4746C66.1017 69.7093 62.8814 72.4535 59.1525 74.3401ZM70.1695 62.8488H64.0678C64.5763 60.1047 64.9153 57.189 64.9153 53.9302C64.9153 50.6715 64.5763 47.7558 64.0678 45.0116H70.1695C71.3559 47.7558 72.0339 50.6715 72.0339 53.9302C72.0339 57.189 71.3559 60.1047 70.1695 62.8488Z" fill="#EB0029"/>
</svg>
